src/expand-less.svg

<svg width="24" height="24" viewBox="0 0 24 24" xmlns="http://www.w3.org/2000/svg" xmlns:xlink="http://www.w3.org/1999/xlink">
  <path d="M5 13l2.3 2.3-2.89 2.87 1.42 1.42L8.7 16.7 11 19v-6H5zm14-2l-2.3-2.3 2.89-2.87-1.42-1.42L15.3 7.3 13 5v6h6z" fill="currentColor"/>
</svg>

<svg width="24" height="24" viewBox="0 0 24 24" xmlns="http://www.w3.org/2000/svg">
<path fill-rule="evenodd" clip-rule="evenodd" d="M5 13L7.3 15.3L4.41 18.17L5.83 19.59L8.7 16.7L11 19V13H5ZM19 11L16.7 8.7L19.59 5.83L18.17 4.41L15.3 7.3L13 5V11H19Z" fill="currentColor"/>
</svg>
